X:5613
T:Roll Out the Barrel
O:england
R:reel
D:Patrick Street 1.
D:Mary MacNamara.
M:C|
K:Em
E2~E2 BE~E2|B2AF DEFD|E2~E2 BE~E2|1 B2Ac BEED:|2 B2Ac BE~E2||
|:e2 (3gfe bege|d^cdf a2fd|1 e2 (3gfe bege|dBA=c BE~E2:|2 efge fde^c|dBA=c BEED||


